icons/derivative/derivative.svg

<svg width="14" height="14" viewBox="0 0 14 14" fill="none"
    xmlns="http://www.w3.org/2000/svg">
    <path d="M3 7H11" stroke="green" stroke-linecap="round"/>
    <path d="M8 1.5C8.27614 1.5 8.5 1.72386 8.5 2V4.5C8.5 5.32843 7.82843 6 7 6C6.17157 6 5.5 5.32843 5.5 4.5C5.5 3.67157 6.17157 3 7 3C7.1755 3 7.34347 3.03153 7.5 3.08691V2C7.5 1.72386 7.72386 1.5 8 1.5ZM7 4C6.72386 4 6.5 4.22386 6.5 4.5C6.5 4.77614 6.72386 5 7 5C7.27614 5 7.5 4.77614 7.5 4.5C7.5 4.22386 7.27614 4 7 4Z" fill="red"/>
    <path d="M6.23157 8C6.50771 8 6.73157 8.22386 6.73157 8.5V11C6.73157 11.8284 6.05999 12.5 5.23157 12.5C4.40314 12.5 3.73157 11.8284 3.73157 11C3.73157 10.1716 4.40314 9.5 5.23157 9.5C5.40707 9.5 5.57504 9.53153 5.73157 9.58691V8.5C5.73157 8.22386 5.95543 8 6.23157 8ZM5.23157 10.5C4.95543 10.5 4.73157 10.7239 4.73157 11C4.73157 11.2761 4.95543 11.5 5.23157 11.5C5.50771 11.5 5.73157 11.2761 5.73157 11C5.73157 10.7239 5.50771 10.5 5.23157 10.5Z" fill="red"/>
    <path d="M9.64729 9.41512C9.91519 9.34814 10.1868 9.51148 10.2537 9.77938C10.3203 10.047 10.158 10.3188 9.89046 10.3858C9.33358 10.5251 9.33358 11.3159 9.89046 11.4552C10.158 11.5224 10.3206 11.7939 10.2537 12.0616C10.1866 12.3292 9.91497 12.4927 9.64729 12.4259C9.24282 12.3247 8.94349 12.1001 8.74788 11.8175C8.55225 12.0997 8.25448 12.3248 7.85042 12.4259C7.58278 12.4926 7.31116 12.3291 7.24397 12.0616C7.17714 11.7938 7.3404 11.5221 7.60823 11.4552C8.12954 11.3244 8.16208 10.6215 7.70589 10.419L7.60823 10.3858L7.51253 10.3516C7.30299 10.2512 7.18571 10.0136 7.24397 9.77938C7.30262 9.54484 7.51831 9.39024 7.75081 9.40047L7.85042 9.41512L7.993 9.45711C8.32531 9.571 8.57703 9.77302 8.74886 10.0206C8.9445 9.73877 9.24367 9.51607 9.64729 9.41512Z" fill="red"/>
</svg>

<svg xmlns="http://www.w3.org/2000/svg" width="14" height="14" fill="none" viewBox="0 0 14 14"><path stroke="green" stroke-linecap="round" d="M3 7h8"/><path fill="red" d="M8 1.5a.5.5 0 0 1 .5.5v2.5a1.5 1.5 0 1 1-1-1.413V2a.5.5 0 0 1 .5-.5M7 4a.5.5 0 1 0 0 1 .5.5 0 0 0 0-1m-.768 4a.5.5 0 0 1 .5.5V11a1.5 1.5 0 1 1-1-1.413V8.5a.5.5 0 0 1 .5-.5m-1 2.5a.5.5 0 1 0 0 1 .5.5 0 0 0 0-1m4.415-1.085a.5.5 0 0 1 .243.97c-.556.14-.556.93 0 1.07a.5.5 0 0 1-.243.97 1.52 1.52 0 0 1-.9-.607 1.52 1.52 0 0 1-.897.608.501.501 0 0 1-.242-.97c.522-.132.554-.835.098-1.037l-.098-.033-.095-.034A.501.501 0 0 1 7.75 9.4l.1.015.142.042c.332.114.584.316.756.564.195-.282.495-.505.898-.606"/></svg>
